X: 36208
T: Scotty's Highland
R: jig
M: 6/8
K: Amajor
cB|AEA cAc|ece aba|g3 f2d|B3B2A|
GEG BGB|dBd g3|f3 fec|A3 A/B/cB|
AEA cAc|ece aba|g3 f2d|f3 f2g|
aba gfe|fec Ace|fdf g2e|a3 acd|
e^de fed|e^de fed|e^de g2f|d3 dBc|
dcd gfe|dcd gfe|dcd f2e|c3 c2d|
e^de fed|e^de fec|Ace ae=g|f3 f2g|
aba gfe|fec Ace|fdf g2e|a3 a2a|
c'gb a3|aga e3|aga c'ae|d3 d3|
EGB EGB|EGB eg2|f3 fec|A3 A2a|
c'gb a3|aga e3|aga c'ae|d3 d3|
EGB EGB|EGB eg2|f3 fec|A3 A||

